X: 1552
T: Oturup Bir Şûh-ı Mutrıbla
C: Ahmet Avni Konuk
O: Turkey
F: http://compmusic.upf.edu/node/140
N: gerdaniyebuselik--kupe--agiraksak--oturup--ahmet_avni_konuk
N: makam= gerdaniyebuselik
N: form= kupe
N: usul= agiraksak = 9/4
M: 9/4
L: 1/16
K: C _1/4B ^f  
Q: 1/4=60
%%MIDI tuningsystem comma53
g8 z2d4d2 g8 g3^3/4f g2a2 g4  | a2_2/4b2 a2g2 c'4 b2a2 a2g2 g2^3/4f2 g6f2 b2ag  | 
w:  Ah  o tu rup  bir   |  şûh_ *  *  *  ı  *  *  mut *  *  *  rıb  | 
g8 z2d4c2 e2d2 c2_2/4B2 c3B c2d2 c4  | \
w:  *  la  dün  İh *  *  *  sâ  | 
z4 d4 g4 g4 ^3/4f2g2 a2g2 g8 z4  | 
w:  ni *  ye de    | 
z8 z2d4g2 g3^3/4f g2a2 _2/4b2a2 g2f2 e4  | \
w:  Et tik  ic *  *  *  ra   | 
e4 _1/4e2d2 d2_3/4e2 d2c2 d2e2 d2e2 g3^3/4f e2d2 c3=B  | 
w:  Bû *  *  se *  *  *  lik  *  *  *  fas  | 
c8 z2c2 =B2c2 d4 e4 e2=f2 d2d2 c3B  | \
w:  *  lı *  nı  Ger *  dâ  | 
A4 A2=B2 c2d2 c2B2 B2A2 A2^G2 A8 z4  | 
w:  ni *  *  *  *  ye *  de    | 
|


